static/logos/zoom-wordmark-color.svg

<svg width="100" height="23" viewBox="0 0 100 23" fill="none" xmlns="http://www.w3.org/2000/svg">
<g clip-path="url(#clip0_1_281)">
<path fill-rule="evenodd" clip-rule="evenodd" d="M81.4186 6.73887C81.8008 7.39837 81.9259 8.1487 81.9672 8.99224L82.0214 10.1166V17.9786L82.0769 19.1041C82.1878 20.9422 83.5433 22.3013 85.3956 22.4169L86.5152 22.4723V10.1166L86.5706 8.99224C86.6166 8.15814 86.7405 7.39365 87.1287 6.72943C87.5242 6.04815 88.092 5.48292 88.775 5.09047C89.4581 4.69803 90.2323 4.49219 91.0201 4.49363C91.8079 4.49506 92.5814 4.70372 93.263 5.09865C93.9446 5.49357 94.5103 6.06088 94.9034 6.74359C95.2856 7.40308 95.4048 8.16758 95.4508 8.99224L95.5062 10.113V17.9786L95.5617 19.1041C95.6773 20.9516 97.0223 22.3107 98.8804 22.4169L100 22.4723V8.99224C100 6.60859 99.0533 4.32252 97.3682 2.63669C95.683 0.950861 93.3973 0.0033012 91.0137 0.00236271C89.7379 0.00101726 88.4765 0.271947 87.3138 0.797051C86.151 1.32216 85.1138 2.08934 84.2713 3.04736C83.4283 2.08972 82.391 1.32272 81.2284 0.797458C80.0658 0.272198 78.8046 0.000743837 77.5288 0.00118271C75.6624 0.00118271 73.9305 0.567475 72.4959 1.54551C71.6205 0.568654 69.6621 0.00118271 68.5378 0.00118271V22.4723L69.6621 22.4169C71.5427 22.293 72.9018 20.9705 72.9749 19.1041L73.0351 17.9786V10.1166L73.0905 8.99224C73.1377 8.14398 73.2557 7.39837 73.6391 6.73415C74.035 6.0533 74.6025 5.48819 75.2851 5.09527C75.9676 4.70235 76.7413 4.49535 77.5288 4.49494C78.317 4.49511 79.0913 4.70252 79.774 5.09637C80.4567 5.49022 81.0239 6.05666 81.4186 6.73887V6.73887ZM4.49376 22.4181L5.61808 22.4723H22.4712L22.4157 21.3516C22.2635 19.504 20.9551 18.1544 19.1017 18.034L17.9774 17.9786H7.86673L21.3468 4.49376L21.2914 3.37416C21.2041 1.50775 19.8403 0.159273 17.9774 0.0566317L16.8531 0.00590171L0 0.00118271L0.0554494 1.12551C0.202921 2.95534 1.53017 4.33331 3.36825 4.43949L4.49376 4.49494H14.6044L1.12432 17.9798L1.17977 19.1041C1.29067 20.9563 2.62736 22.2977 4.49376 22.4169V22.4181ZM64.1266 3.29039C65.1701 4.33369 65.9979 5.57233 66.5627 6.93558C67.1274 8.29883 67.4181 9.75998 67.4181 11.2356C67.4181 12.7112 67.1274 14.1723 66.5627 15.5356C65.9979 16.8988 65.1701 18.1375 64.1266 19.1808C62.0184 21.2873 59.16 22.4706 56.1797 22.4706C53.1993 22.4706 50.341 21.2873 48.2327 19.1808C43.8451 14.7932 43.8451 7.67797 48.2327 3.29039C49.2753 2.24744 50.513 1.42007 51.8754 0.855498C53.2377 0.290931 54.6979 0.0002329 56.1726 2.70852e-06C57.6497 -0.00102278 59.1124 0.289163 60.4773 0.853962C61.8421 1.41876 63.0822 2.24709 64.1266 3.29157V3.29039ZM60.9471 6.47224C62.2109 7.73699 62.9208 9.45177 62.9208 11.2397C62.9208 13.0276 62.2109 14.7424 60.9471 16.0072C59.6824 17.271 57.9676 17.9809 56.1797 17.9809C54.3917 17.9809 52.6769 17.271 51.4122 16.0072C50.1484 14.7424 49.4385 13.0276 49.4385 11.2397C49.4385 9.45177 50.1484 7.73699 51.4122 6.47224C52.6769 5.20846 54.3917 4.49855 56.1797 4.49855C57.9676 4.49855 59.6824 5.20846 60.9471 6.47224V6.47224ZM32.5913 2.70852e-06C34.066 0.000387839 35.5263 0.291272 36.8886 0.856043C38.2509 1.42081 39.4887 2.24841 40.5311 3.29157C44.9199 7.67797 44.9199 14.7944 40.5311 19.1808C38.4229 21.2873 35.5645 22.4706 32.5842 22.4706C29.6039 22.4706 26.7455 21.2873 24.6372 19.1808C20.2496 14.7932 20.2496 7.67797 24.6372 3.29039C25.6798 2.24744 26.9176 1.42007 28.2799 0.855498C29.6422 0.290931 31.1024 0.0002329 32.5771 2.70852e-06H32.5913ZM37.3516 6.46988C38.6158 7.73467 39.3259 9.44971 39.3259 11.2379C39.3259 13.0262 38.6158 14.7412 37.3516 16.006C36.0869 17.2698 34.3721 17.9797 32.5842 17.9797C30.7962 17.9797 29.0815 17.2698 27.8167 16.006C26.5529 14.7413 25.843 13.0265 25.843 11.2385C25.843 9.45059 26.5529 7.7358 27.8167 6.47106C29.0815 5.20728 30.7962 4.49737 32.5842 4.49737C34.3721 4.49737 36.0869 5.20728 37.3516 6.47106V6.46988Z" fill="#2D8CFF"/>
</g>
<defs>
<clipPath id="clip0_1_281">
<rect width="100" height="22.4723" fill="white"/>
</clipPath>
</defs>
</svg>

<svg xmlns="http://www.w3.org/2000/svg" width="278.261" height="64" fill="none" viewBox="0 0 100 23"><g clip-path="url(#a)"><path fill="#2D8CFF" fill-rule="evenodd" d="M81.419 6.739c.382.66.507 1.41.548 2.253l.054 1.125v7.862l.056 1.125c.11 1.838 1.466 3.197 3.319 3.313l1.12.055V10.117l.055-1.125c.046-.834.17-1.598.558-2.263a4.49 4.49 0 0 1 7.774.015c.383.66.502 1.424.548 2.248l.055 1.121v7.866l.056 1.125c.115 1.848 1.46 3.207 3.318 3.313l1.12.055V8.992A8.99 8.99 0 0 0 87.314.797a8.965 8.965 0 0 0-3.043 2.25A8.98 8.98 0 0 0 77.53.001a8.898 8.898 0 0 0-5.033 1.545C71.62.569 69.662 0 68.538 0v22.471l1.124-.055c1.88-.124 3.24-1.447 3.313-3.313l.06-1.125v-7.862l.056-1.125c.047-.848.165-1.594.548-2.258a4.502 4.502 0 0 1 3.89-2.24 4.495 4.495 0 0 1 3.89 2.245ZM4.494 22.419l1.124.053h16.853l-.055-1.12c-.152-1.848-1.46-3.198-3.314-3.318l-1.125-.055H7.867l13.48-13.485-.056-1.12C21.204 1.508 19.841.16 17.977.057L16.853.006 0 0l.055 1.125c.148 1.83 1.475 3.207 3.313 3.313l1.126.056h10.11L1.124 17.98l.056 1.124c.11 1.852 1.447 3.194 3.314 3.313v.001ZM64.127 3.29a11.236 11.236 0 0 1-7.947 19.18c-2.98 0-5.839-1.183-7.947-3.29-4.388-4.387-4.388-11.502 0-15.89A11.229 11.229 0 0 1 56.173 0a11.238 11.238 0 0 1 7.954 3.292V3.29Zm-3.18 3.182a6.745 6.745 0 0 1 0 9.535 6.745 6.745 0 0 1-9.535 0 6.745 6.745 0 0 1 0-9.535 6.745 6.745 0 0 1 9.535 0ZM32.591 0a11.229 11.229 0 0 1 7.94 3.292c4.389 4.386 4.389 11.502 0 15.889a11.243 11.243 0 0 1-15.894 0c-4.387-4.388-4.387-11.503 0-15.89A11.23 11.23 0 0 1 32.577 0h.014Zm4.76 6.47a6.745 6.745 0 0 1 0 9.536 6.745 6.745 0 0 1-9.534 0 6.745 6.745 0 0 1 0-9.535 6.745 6.745 0 0 1 9.535 0V6.47Z" clip-rule="evenodd"/></g><defs><clipPath id="a"><path fill="#fff" d="M0 0h100v22.472H0z"/></clipPath></defs></svg>
